X: 30538
T: On The Fly
R: reel
M: 4/4
K: Dmajor
|:D2 (3DDD DFAF|G2 (3GGG GBdB|Acec Acec|dfec dBAF|
D2 (3DDD DFAF|G2 (3GGG GBdB|Acec Acec|dfec d2 e2:|
|:f2 d2 BcdB|Adfd B2 Ad|gffe fdBA|GEFD CEGE|
F2 d2 BcdB|Adfd BdAd|gffe fdBA|CEGE D2 e2:|

